!!!!SEGMENT: pl-sa--549-a-ix-29--031_anonim--mazur.krn
!!!cenid: 18xx:485
!!!COM: Anonim
!!!COM-rismID: pe30004985
!!!CDT:
!!!CNT:
!!!OTL: Mazur
!!!PDT:
!!!AGN: Secular; Mazurka
!!!SMS-siglum: PL-SA
!!!SMS-shelfmark: 549/A IX 29
!!!SMS-shelfwork: 031 W
!!!SMS-variant:
!!!SMS-altvar:
!!!NIFC-rismSourceID: 1001068919
!!!NIFC-islandoraID:
!!!URL-pdf-islandora:
!!!URL-scan: https://bc.bdsandomierz.pl/dlibra/publication/1441/edition/1409/content @EN{Scan in the Sandomierz Diocese Digital Library} @PL{Skany w portalu Cyfrowa Biblioteka Diecezjalna w Sandomierzu}
!!!ONB-nifc: Str. 22, s. 5-6
!!!AIN: 1 piano
!!!key: C
**kern	**kern
*group1	*group1
*part1	*part1
*staff2	*staff1
*I"[Piano]	*I"[Piano]
*Ipiano	*Ipiano
*ICklav	*ICklav
*clefF4	*clefG2
*k[b-]	*k[b-]
*C:	*C:
*M3/8	*M3/8
=1	=1
8F\L	16a/LL
.	16g/JJ
8A\ 8c\	8f/L
8A\J 8c\	8f/J
=2	=2
*rep	*
8F\L	16f/LL
.	16g/JJ
8A\ 8c\	8a/L
8A\J 8c\	8a/J
*Xrep	*
=3	=3
8C/	16b-/LL
.	16a/JJ
8G\L 8B-\	8g/L
8G\J 8B-\	8f/J
=4	=4
*rep	*
8C/	16e/LL
.	16d/JJ
8G\L 8B-\	8e/L
8G\L 8B-\	8c/J
*Xrep	*
=5:|!|:	=5:|!|:
8C\L	8.c/L
8G\ 8B-\	.
.	16e/Jk
8G\J 8B-\	16g/LL
.	16b-/JJ
=6	=6
8F\L	16a/LL
.	16f/
8A\ 8c\	16a/
.	16f/
8A\J 8c\	16a/
.	16cc/JJ
=7	=7
8C\L	16b-\LL
.	16a\
8G\ 8B-\	16g\
.	16a\
8G\J 8B-\	16b-\
.	16cc\JJ
=8	=8
8F\L	8a/L
8A\ 8c\	8f/J
8A\J 8c\	8r
!!LO:LB:g=original
=9	=9
8C\L	8.c/L
8G\ 8B-\	.
.	16e/Jk
8G\J 8B-\	16g/LL
.	16b-/JJ
=10	=10
8F\L	16a/LL
.	16f/
8A\ 8c\	16a/
.	16f/
8A\J 8c\	16a/
.	16cc/JJ
=11	=11
8C\L	16b-/LL
.	16a/
8G\ 8B-\	16g/ 16b-/
.	16a/
8G\J 8B-\	16b-/
.	16e/JJ
=12	=12
8F\L	8g/L
8A\J 8c\	8f/J
8r	8r
=:|!	=:|!
*-	*-
!!!system-decoration: [{g1}]
!!!ENC: Anastazja Marusiak
!!!END: 2020-06-17
!!!EED: Jędrzej Mróz
!!!EEV: 2022-01-05
!!!YEC: Copyright 2022 Narodowy Instytut Fryderyka Chopina (https://polishscores.org)
!!!YEM: Licence CC BY 4.0 (https://creativecommons.org/licenses/by/4.0)
